X: 10089
T: Diddley-i-Pod, The
R: jig
M: 6/8
K: Amajor
f|:e2A fec|e2A A2f|e2A fec|B3 Bcd|
e2A f2e|c2A A2f|ecA B2A|1 A3- Acd:|2 A3- AGF||
|:EAc cdB|c2A EAc|cdB c/d/ec|BBB BAB|
cdB cdB|c2A E3|EFA B2A|1 A3- AGF:|2 A3- Ac/d/e||
|:f3 fec|ecB A2E|Ace fec|B3- Bce|
[1 f3 fga|f3 fga|fga b2a|a3-gce:|
[2 f3 fga|fga f3|fga b2a|a3-a2f||

